src/assets/icons/close.svg

<svg xmlns="http://www.w3.org/2000/svg" width="28" height="28" fill="none">
  <path fill="#fff" d="M16.71 15.29 23 9V5h-4v2.59l-3.71 3.7L9 5H5v4l3 3v-1.41L6.41 9h1.18l3.7 3.71L5 19v4h4v-2.59l3.71-3.7L19 23h4v-4l-3-3v1.41L21.59 19h-1.18z"/>
</svg>

<svg width="28" height="28" viewBox="0 0 28 28" fill="none" xmlns="http://www.w3.org/2000/svg">
<path d="M16.71 15.29L23 9V5H19V7.59L15.29 11.29L9 5H5V9L8 12V10.59L6.41 9H7.59L11.29 12.71L5 19V23H9V20.41L12.71 16.71L19 23H23V19L20 16V17.41L21.59 19H20.41L16.71 15.29Z" fill="white"/>
</svg>
